X: 15074
T: German, The
R: jig
M: 6/8
K: Gmixolydian
|:G,B,G, DG,B,|DEF ECA,|G,B,G, DG,B,|DEF ~G3|
G,B,G, DG,B,|DEF ECA,|AGF G2E|1 FED E2C:|2 BcB G3||
|:d2G GdG|e2G GeG|fed edc|~B3 BAG|
d2G GdG|e2G GeG|fed ee/e/e|1 agf gfe:|2 agf g3||

